icons/14x14_timer_outline.svg

<svg xmlns="http://www.w3.org/2000/svg" width="14" height="14" viewBox="0 0 14 14">
  <path d="M7,3 C4.7913695,3 3,4.7913695 3,7 C3,9.20935422 4.79089317,11 7,11 C9.2098305,11 11,9.2098305 11,7 C11,4.79089317 9.20935422,3 7,3 Z M9,1.34136883 C11.3306842,2.16508042 13,4.38786129 13,7 C13,10.3144 10.3144,13 7,13 C3.6868,13 1,10.3144 1,7 C1,4.38803821 2.66983544,2.1653815 5,1.34153622 L5,1 C5,0.44771525 5.44771525,1.01453063e-16 6,0 L8,0 C8.55228475,-1.01453063e-16 9,0.44771525 9,1 L9,1.34136883 Z M7,4 C7.55228475,4 8,4.44771525 8,5 L8,7 C8,7.55228475 7.55228475,8 7,8 C6.44771525,8 6,7.55228475 6,7 L6,5 C6,4.44771525 6.44771525,4 7,4 Z"/>
</svg>

<svg width="14" height="14" fill="none" xmlns="http://www.w3.org/2000/svg"><path d="M7 3a4 4 0 1 0 .001 8.001A4 4 0 0 0 7 3Zm2-1.659A6.002 6.002 0 0 1 7 13 6 6 0 0 1 5 1.342V1a1 1 0 0 1 1-1h2a1 1 0 0 1 1 1v.341ZM7 4a1 1 0 0 1 1 1v2a1 1 0 0 1-2 0V5a1 1 0 0 1 1-1Z" fill="#000"/></svg>
